X:137
T:Something New
M:9/8
L:1/8
B:Thompson's Compleat Collection of 200 Favourite Country Dances, vol. 1 (London, 1757)
Z:Transcribed and edited by Flynn Titford-Mock, 2007
Z:abc's:AK/Fiddler's Companion
K:Bb
B3 BFD E3|B3 BFD EFG|B3 BFD E2E|DEF GAB ABc:|
|:B3 fdf F3|B3 fdf gab|B3 fdf F3|DEF GAB ABc:|

